!!!OTL: SAH EIN KNAB EIN ROESLEIN STEHN
!!!ARE: Europa, Mitteleuropa, Deutschland
!!!SCT: Z0113
!!!YEM: Copyright 1995, estate of Helmut Schaffrath.
**kern
*ICvox
*Ivox
*M2/4
*k[b-]
*F:
{8f
8f
8f
8f
=1
8g
8f
4f
=2
8cc
8cc
8a
8f
=3
4b-
4b-}
=4
{8f
8f
8f
8f
=5
8g
8f
4f
=6
8cc
8cc
8a
8f
=7
8b-
8b-
4b-}
=8
{8a
8g
8b-
8a
=9
4a
4g}
=10
{8cc
8a
8cc
8a
=11
8ff
8dd
4cc
=12
8dd
8ff
8ee
8dd
=13
4gg
4ff}
==
!!!AGN: Sagen - Lied, Romanze
!!!ONB: ESAC (Essen Associative Code) Database: ZUCCAL
!!!AMT: simple duple
!!!AIN: vox
!!!EED: Helmut Schaffrath
!!!EEV: 1.0
*-
